images/mtl.svg

<svg height="250" viewBox="0 0 250 250" width="250" xmlns="http://www.w3.org/2000/svg" xmlns:xlink="http://www.w3.org/1999/xlink"><linearGradient id="a"><stop offset="0" stop-color="#4400e2"/><stop offset=".041" stop-color="#7013c5"/><stop offset=".087" stop-color="#9a25aa"/><stop offset=".133" stop-color="#bc3494"/><stop offset=".18" stop-color="#d73f82"/><stop offset=".228" stop-color="#ea4876"/><stop offset=".278" stop-color="#f54c6e"/><stop offset=".33" stop-color="#f94e6c"/><stop offset="1" stop-color="#ffd402"/></linearGradient><linearGradient id="b" gradientTransform="matrix(4.545455 0 0 5.681818 13.636364 28.409091)" gradientUnits="userSpaceOnUse" x1=".226" x2="210.727005" xlink:href="#a" y1="13.636" y2="8.706"/><linearGradient id="c" gradientTransform="matrix(4.545455 0 0 5.681818 13.636364 28.409091)" gradientUnits="userSpaceOnUse" x1=".209" x2="210.710007" xlink:href="#a" y1="12.945" y2="8.015"/><linearGradient id="d" gradientTransform="matrix(4.545455 0 0 5.681818 13.636364 28.409091)" gradientUnits="userSpaceOnUse" x1=".215" x2="210.716003" xlink:href="#a" y1="13.176" y2="8.246"/><linearGradient id="e" gradientTransform="matrix(4.545455 0 0 5.681818 13.636364 28.409091)" gradientUnits="userSpaceOnUse" x1=".221" x2="210.722" xlink:href="#a" y1="13.383" y2="8.453"/><path d="m188.703125 52.109375c-5.289063.019531-9.5625 5.398437-9.542969 12.011719v120.550781c0 6.640625 4.273438 12.011719 9.542969 12.011719 5.292969-.019532 9.570313-5.398438 9.550781-12.011719v-120.550781c.019532-6.613282-4.253906-11.996094-9.542968-12.011719" fill="url(#b)"/><path d="m56.140625 52.109375c-5.289063.015625-9.566406 5.394531-9.550781 12.011719v120.550781c0 6.640625 4.28125 12.011719 9.550781 12.011719 5.292969-.019532 9.566406-5.398438 9.550781-12.011719v-120.550781c.011719-3.179688-.988281-6.230469-2.78125-8.484375-1.789062-2.253907-4.222656-3.527344-6.765625-3.535157" fill="url(#c)"/><path d="m100.335938 77.171875c-5.289063.015625-9.566407 5.390625-9.550782 12.003906v70.4375c0 6.640625 4.277344 12.011719 9.546875 12.011719 5.292969-.015625 9.570313-5.394531 9.554688-12.011719v-70.4375c0-6.625-4.273438-12.003906-9.550781-12.003906" fill="url(#d)"/><path d="m144.53125 97.402344c-5.289062.015625-9.570312 5.394531-9.554688 12.007812v29.714844c0 6.636719 4.28125 12.011719 9.554688 12.011719 5.269531 0 9.546875-5.386719 9.546875-12.011719v-29.714844c.015625-6.609375-4.257813-11.984375-9.546875-12.007812" fill="url(#e)"/></svg>

<?xml version="1.0" encoding="UTF-8"?>
<svg xmlns="http://www.w3.org/2000/svg" xmlns:xlink="http://www.w3.org/1999/xlink" width="250px" height="250px" viewBox="0 0 250 250" version="1.1">
<defs>
<linearGradient id="linear0" gradientUnits="userSpaceOnUse" x1="0.226" y1="13.636" x2="210.727005" y2="8.706" gradientTransform="matrix(4.545455,0,0,5.681818,13.636364,28.409091)">
<stop offset="0" style="stop-color:rgb(26.666668%,0%,88.627452%);stop-opacity:1;"/>
<stop offset="0.041" style="stop-color:rgb(43.921569%,7.450981%,77.254903%);stop-opacity:1;"/>
<stop offset="0.087" style="stop-color:rgb(60.392159%,14.509805%,66.666669%);stop-opacity:1;"/>
<stop offset="0.133" style="stop-color:rgb(73.725492%,20.392157%,58.039218%);stop-opacity:1;"/>
<stop offset="0.18" style="stop-color:rgb(84.313726%,24.705882%,50.980395%);stop-opacity:1;"/>
<stop offset="0.228" style="stop-color:rgb(91.764706%,28.235295%,46.27451%);stop-opacity:1;"/>
<stop offset="0.278" style="stop-color:rgb(96.078432%,29.803923%,43.137255%);stop-opacity:1;"/>
<stop offset="0.33" style="stop-color:rgb(97.647059%,30.588236%,42.352942%);stop-opacity:1;"/>
<stop offset="1" style="stop-color:rgb(100%,83.137256%,0.784314%);stop-opacity:1;"/>
</linearGradient>
<linearGradient id="linear1" gradientUnits="userSpaceOnUse" x1="0.209" y1="12.945" x2="210.710007" y2="8.015" gradientTransform="matrix(4.545455,0,0,5.681818,13.636364,28.409091)">
<stop offset="0" style="stop-color:rgb(26.666668%,0%,88.627452%);stop-opacity:1;"/>
<stop offset="0.041" style="stop-color:rgb(43.921569%,7.450981%,77.254903%);stop-opacity:1;"/>
<stop offset="0.087" style="stop-color:rgb(60.392159%,14.509805%,66.666669%);stop-opacity:1;"/>
<stop offset="0.133" style="stop-color:rgb(73.725492%,20.392157%,58.039218%);stop-opacity:1;"/>
<stop offset="0.18" style="stop-color:rgb(84.313726%,24.705882%,50.980395%);stop-opacity:1;"/>
<stop offset="0.228" style="stop-color:rgb(91.764706%,28.235295%,46.27451%);stop-opacity:1;"/>
<stop offset="0.278" style="stop-color:rgb(96.078432%,29.803923%,43.137255%);stop-opacity:1;"/>
<stop offset="0.33" style="stop-color:rgb(97.647059%,30.588236%,42.352942%);stop-opacity:1;"/>
<stop offset="1" style="stop-color:rgb(100%,83.137256%,0.784314%);stop-opacity:1;"/>
</linearGradient>
<linearGradient id="linear2" gradientUnits="userSpaceOnUse" x1="0.215" y1="13.176" x2="210.716003" y2="8.246" gradientTransform="matrix(4.545455,0,0,5.681818,13.636364,28.409091)">
<stop offset="0" style="stop-color:rgb(26.666668%,0%,88.627452%);stop-opacity:1;"/>
<stop offset="0.041" style="stop-color:rgb(43.921569%,7.450981%,77.254903%);stop-opacity:1;"/>
<stop offset="0.087" style="stop-color:rgb(60.392159%,14.509805%,66.666669%);stop-opacity:1;"/>
<stop offset="0.133" style="stop-color:rgb(73.725492%,20.392157%,58.039218%);stop-opacity:1;"/>
<stop offset="0.18" style="stop-color:rgb(84.313726%,24.705882%,50.980395%);stop-opacity:1;"/>
<stop offset="0.228" style="stop-color:rgb(91.764706%,28.235295%,46.27451%);stop-opacity:1;"/>
<stop offset="0.278" style="stop-color:rgb(96.078432%,29.803923%,43.137255%);stop-opacity:1;"/>
<stop offset="0.33" style="stop-color:rgb(97.647059%,30.588236%,42.352942%);stop-opacity:1;"/>
<stop offset="1" style="stop-color:rgb(100%,83.137256%,0.784314%);stop-opacity:1;"/>
</linearGradient>
<linearGradient id="linear3" gradientUnits="userSpaceOnUse" x1="0.221" y1="13.383" x2="210.722" y2="8.453" gradientTransform="matrix(4.545455,0,0,5.681818,13.636364,28.409091)">
<stop offset="0" style="stop-color:rgb(26.666668%,0%,88.627452%);stop-opacity:1;"/>
<stop offset="0.041" style="stop-color:rgb(43.921569%,7.450981%,77.254903%);stop-opacity:1;"/>
<stop offset="0.087" style="stop-color:rgb(60.392159%,14.509805%,66.666669%);stop-opacity:1;"/>
<stop offset="0.133" style="stop-color:rgb(73.725492%,20.392157%,58.039218%);stop-opacity:1;"/>
<stop offset="0.18" style="stop-color:rgb(84.313726%,24.705882%,50.980395%);stop-opacity:1;"/>
<stop offset="0.228" style="stop-color:rgb(91.764706%,28.235295%,46.27451%);stop-opacity:1;"/>
<stop offset="0.278" style="stop-color:rgb(96.078432%,29.803923%,43.137255%);stop-opacity:1;"/>
<stop offset="0.33" style="stop-color:rgb(97.647059%,30.588236%,42.352942%);stop-opacity:1;"/>
<stop offset="1" style="stop-color:rgb(100%,83.137256%,0.784314%);stop-opacity:1;"/>
</linearGradient>
</defs>
<g id="surface1">
<path style=" stroke:none;fill-rule:nonzero;fill:url(#linear0);" d="M 188.703125 52.109375 C 183.414062 52.128906 179.140625 57.507812 179.160156 64.121094 L 179.160156 184.671875 C 179.160156 191.3125 183.433594 196.683594 188.703125 196.683594 C 193.996094 196.664062 198.273438 191.285156 198.253906 184.671875 L 198.253906 64.121094 C 198.273438 57.507812 194 52.125 188.710938 52.109375 "/>
<path style=" stroke:none;fill-rule:nonzero;fill:url(#linear1);" d="M 56.140625 52.109375 C 50.851562 52.125 46.574219 57.503906 46.589844 64.121094 L 46.589844 184.671875 C 46.589844 191.3125 50.871094 196.683594 56.140625 196.683594 C 61.433594 196.664062 65.707031 191.285156 65.691406 184.671875 L 65.691406 64.121094 C 65.703125 60.941406 64.703125 57.890625 62.910156 55.636719 C 61.121094 53.382812 58.6875 52.109375 56.144531 52.101562 "/>
<path style=" stroke:none;fill-rule:nonzero;fill:url(#linear2);" d="M 100.335938 77.171875 C 95.046875 77.1875 90.769531 82.5625 90.785156 89.175781 L 90.785156 159.613281 C 90.785156 166.253906 95.0625 171.625 100.332031 171.625 C 105.625 171.609375 109.902344 166.230469 109.886719 159.613281 L 109.886719 89.175781 C 109.886719 82.550781 105.613281 77.171875 100.335938 77.171875 "/>
<path style=" stroke:none;fill-rule:nonzero;fill:url(#linear3);" d="M 144.53125 97.402344 C 139.242188 97.417969 134.960938 102.796875 134.976562 109.410156 L 134.976562 139.125 C 134.976562 145.761719 139.257812 151.136719 144.53125 151.136719 C 149.800781 151.136719 154.078125 145.75 154.078125 139.125 L 154.078125 109.410156 C 154.09375 102.800781 149.820312 97.425781 144.53125 97.402344 "/>
</g>
</svg>
